icons/1_Primary/Stake.svg

<svg xmlns="http://www.w3.org/2000/svg" width="1024" height="1024" fill="none">
   <g clip-path="url(#a)">
      <path fill="#56595B" d="M512 1024c282.77 0 512-229.23 512-512S794.77 0 512 0 0 229.23 0 512s229.23 512 512 512Z"/>
      <path fill="#fff" d="M324.22 390.09a96.202 96.202 0 0 0-34.21.45c-17.56 3.89-27.37 16.47-30.8 41.15l-1.09 7.74c-3.54 23.52 3.13 39.13 15.79 61.16l9.51 16.8c11.09 19.57 14.8 28 11.8 47.44-1 7-2.24 14-4.72 18.56-2.48 4.56-5 6.55-9.52 6.89-6.68.51-11.6-3.71-10.24-14.23l6.17-44.64-33.46.58-6.55 47.35c-3.31 23 5.64 38 24.18 42.81 6.37 1.65 22.77 2.62 35.75-1.1 18.34-5.28 29.3-21.16 33-49.52l1.08-8.05c3.48-29.08-4.49-42.21-18.87-71l-9.21-17.79c-9.21-17.79-11.8-23.87-10.45-36.24l.81-5.93c.94-4.74 3.16-12.71 10.84-12.84 5.31-.09 9.59 4.15 8.26 13.74l-4.38 31.26 32.85-.58 5.24-37.43c2.86-20.67-4.66-33.39-21.78-36.58Zm146.27-1.93L365.15 390l-4.6 33.74 36.09-.64L369 619.63l33.77-.59 27.6-196.53 35.47-.62 4.65-33.73Zm-37.75 230.36 31-.55 8.26-35 26.28-.46-1.18 34.9 32.23-.57 3.08-229.73-40.21.7-59.46 230.71Zm237.67-233.87-34.08.6-37.45 88.65 12.28-88.21-33.76.59-32.24 230.25 33.76-.59 14-99 14 98.55 34.68-.62-17.45-121.67 46.26-108.55Zm-14.89 230 78.28-1.38 4.92-35-44.51.78 9.28-66.54 33.47-.58 4.92-35-33.47.58 8.47-60.35 42.68-.75L764.2 383l-76.44 1.34-32.24 230.31Zm133.73-169.83 20.58-.36 3.67-102.08-24.25 102.44Z"/>
   </g>
   <defs>
      <clipPath id="a">
         <path fill="#fff" d="M0 0h1024v1024H0z"/>
      </clipPath>
   </defs>
</svg>

<svg width="1024" height="1024" viewBox="0 0 1024 1024" fill="none" xmlns="http://www.w3.org/2000/svg">
<g clip-path="url(#clip0_2_3549)">
<path d="M512 1024C794.77 1024 1024 794.77 1024 512C1024 229.23 794.77 0 512 0C229.23 0 0 229.23 0 512C0 794.77 229.23 1024 512 1024Z" fill="#56595B"/>
<path d="M324.22 390.09C312.881 388.195 301.295 388.347 290.01 390.54C272.45 394.43 262.64 407.01 259.21 431.69L258.12 439.43C254.58 462.95 261.25 478.56 273.91 500.59L283.42 517.39C294.51 536.96 298.22 545.39 295.22 564.83C294.22 571.83 292.98 578.83 290.5 583.39C288.02 587.95 285.5 589.94 280.98 590.28C274.3 590.79 269.38 586.57 270.74 576.05L276.91 531.41L243.45 531.99L236.9 579.34C233.59 602.34 242.54 617.34 261.08 622.15C267.45 623.8 283.85 624.77 296.83 621.05C315.17 615.77 326.13 599.89 329.83 571.53L330.91 563.48C334.39 534.4 326.42 521.27 312.04 492.48L302.83 474.69C293.62 456.9 291.03 450.82 292.38 438.45L293.19 432.52C294.13 427.78 296.35 419.81 304.03 419.68C309.34 419.59 313.62 423.83 312.29 433.42L307.91 464.68L340.76 464.1L346 426.67C348.86 406 341.34 393.28 324.22 390.09ZM470.49 388.16L365.15 390L360.55 423.74L396.64 423.1L369 619.63L402.77 619.04L430.37 422.51L465.84 421.89L470.49 388.16ZM432.74 618.52L463.74 617.97L472 582.97L498.28 582.51L497.1 617.41L529.33 616.84L532.41 387.11L492.2 387.81L432.74 618.52ZM670.41 384.65L636.33 385.25L598.88 473.9L611.16 385.69L577.4 386.28L545.16 616.53L578.92 615.94L592.92 516.94L606.92 615.49L641.6 614.87L624.15 493.2L670.41 384.65ZM655.52 614.65L733.8 613.27L738.72 578.27L694.21 579.05L703.49 512.51L736.96 511.93L741.88 476.93L708.41 477.51L716.88 417.16L759.56 416.41L764.2 383L687.76 384.34L655.52 614.65ZM789.25 444.82L809.83 444.46L813.5 342.38L789.25 444.82Z" fill="white"/>
</g>
<defs>
<clipPath id="clip0_2_3549">
<rect width="1024" height="1024" fill="white"/>
</clipPath>
</defs>
</svg>
